cartflows/admin-core/assets/images/landing_step.svg

<svg width="200" height="259" viewBox="0 0 200 259" fill="none" xmlns="http://www.w3.org/2000/svg">
<rect x="0.5" y="0.5" width="199" height="258" rx="9.5" fill="white" stroke="#EAEAEA"/>
<path d="M0 10C0 4.47715 4.47715 0 10 0H190C195.523 0 200 4.47715 200 10V28H0V10Z" fill="#E6EAED"/>
<circle cx="14" cy="14" r="4" fill="#FF3B30"/>
<circle cx="27" cy="14" r="4" fill="#FFCC00"/>
<circle cx="40" cy="14" r="4" fill="#4CD964"/>
<rect x="64" y="10" width="107" height="7" rx="1" fill="white"/>
<rect x="23" y="220" width="154" height="20" rx="2" fill="#2271B1"/>
<path d="M67.2056 233.5H70.0021C71.4723 233.5 72.2553 232.733 72.2553 231.691C72.2553 230.723 71.5618 230.138 70.8171 230.103V230.039C71.4979 229.885 71.9996 229.403 71.9996 228.632C71.9996 227.651 71.271 226.955 69.8263 226.955H67.2056V233.5ZM68.5895 232.369V230.63H69.7496C70.4144 230.63 70.8267 231.013 70.8267 231.554C70.8267 232.046 70.4911 232.369 69.7177 232.369H68.5895ZM68.5895 229.694V228.073H69.641C70.2546 228.073 70.603 228.39 70.603 228.863C70.603 229.38 70.1811 229.694 69.6154 229.694H68.5895ZM76.2783 231.41C76.2815 232.068 75.8309 232.413 75.3419 232.413C74.8273 232.413 74.4949 232.052 74.4917 231.474V228.591H73.1302V231.717C73.1334 232.864 73.8046 233.564 74.7922 233.564C75.5305 233.564 76.061 233.184 76.2815 232.608H76.3327V233.5H77.6398V228.591H76.2783V231.41ZM79.5694 235.341C80.5826 235.341 81.1195 234.823 81.3975 234.031L83.3056 228.597L81.8642 228.591L80.8382 232.196H80.7871L79.7708 228.591H78.339L80.1 233.641L80.0201 233.848C79.8411 234.309 79.4991 234.331 79.0197 234.184L78.7129 235.2C78.9078 235.283 79.2243 235.341 79.5694 235.341ZM91.5857 226.955H90.2082V231.071H90.1507L87.3254 226.955H86.1109V233.5H87.4948V229.38H87.5427L90.3904 233.5H91.5857V226.955ZM94.9215 233.596C96.4109 233.596 97.3377 232.576 97.3377 231.065C97.3377 229.543 96.4109 228.527 94.9215 228.527C93.4322 228.527 92.5053 229.543 92.5053 231.065C92.5053 232.576 93.4322 233.596 94.9215 233.596ZM94.9279 232.541C94.2408 232.541 93.8892 231.912 93.8892 231.055C93.8892 230.199 94.2408 229.566 94.9279 229.566C95.6023 229.566 95.9538 230.199 95.9538 231.055C95.9538 231.912 95.6023 232.541 94.9279 232.541ZM99.0684 233.5H100.507L101.35 230.413H101.411L102.255 233.5H103.696L105.029 228.591H103.655L102.907 231.87H102.865L102.06 228.591H100.708L99.9153 231.889H99.8706L99.1099 228.591H97.7324L99.0684 233.5ZM108.139 230.876C108.139 232.464 108.557 233.784 109.43 234.922H110.731C110.063 234.078 109.555 232.391 109.555 230.876C109.555 229.364 110.063 227.677 110.731 226.833H109.43C108.557 227.971 108.139 229.288 108.139 230.876ZM117.322 229.246C117.139 227.734 115.995 226.865 114.48 226.865C112.751 226.865 111.431 228.086 111.431 230.227C111.431 232.362 112.729 233.589 114.48 233.589C116.158 233.589 117.171 232.474 117.322 231.269L115.922 231.263C115.791 231.963 115.241 232.365 114.503 232.365C113.509 232.365 112.834 231.627 112.834 230.227C112.834 228.866 113.499 228.089 114.512 228.089C115.27 228.089 115.816 228.527 115.922 229.246H117.322ZM118.065 228.096H120.069V233.5H121.437V228.096H123.44V226.955H118.065V228.096ZM124.645 233.5L125.131 232.007H127.493L127.979 233.5H129.462L127.205 226.955H125.422L123.162 233.5H124.645ZM125.483 230.927L126.288 228.45H126.339L127.145 230.927H125.483ZM132.519 230.227C132.519 228.639 132.1 227.319 131.228 226.181H129.927C130.595 227.025 131.103 228.712 131.103 230.227C131.103 231.739 130.595 233.426 129.927 234.27H131.228C132.1 233.132 132.519 231.816 132.519 230.227Z" fill="white"/>
<rect x="65" y="164" width="70" height="4" rx="1" fill="#E6EAED"/>
<rect x="75" y="57" width="50" height="4" rx="1" fill="#E6EAED"/>
<rect x="50" y="43" width="100" height="4" rx="1" fill="#2271B1"/>
<rect x="23.75" y="76.75" width="152.5" height="61.5" rx="1.25" fill="white" stroke="#2271B1" stroke-width="1.5"/>
<path d="M95.8769 113.483L114.99 94.0993L143.339 126.25H58.8757L83.4064 102.899L94.8326 113.506L95.3659 114.001L95.8769 113.483Z" fill="white" stroke="#2271B1" stroke-width="1.5"/>
<path d="M101.25 95C101.25 97.9623 99.0633 100.25 96.5 100.25C93.9367 100.25 91.75 97.9623 91.75 95C91.75 92.0377 93.9367 89.75 96.5 89.75C99.0633 89.75 101.25 92.0377 101.25 95Z" fill="white" stroke="#2271B1" stroke-width="1.5"/>
<path d="M166.727 111.06L169.78 108L166.727 104.94L167.667 104L171.667 108L167.667 112L166.727 111.06Z" fill="#2271B1"/>
<path d="M34.272 111.06L31.2187 108L34.272 104.94L33.332 104L29.332 108L33.332 112L34.272 111.06Z" fill="#2271B1"/>
<circle cx="91.5" cy="147.5" r="1.5" fill="#2271B1"/>
<circle cx="99.5" cy="147.5" r="1.5" fill="#2271B1"/>
<circle cx="107.5" cy="147.5" r="1.5" fill="#2271B1"/>
<rect x="23" y="178" width="154" height="4" rx="1" fill="#E6EAED"/>
<rect x="23" y="192" width="154" height="4" rx="1" fill="#E6EAED"/>
<rect x="23" y="206" width="154" height="4" rx="1" fill="#E6EAED"/>
</svg>

<svg width="200" height="259" fill="none" xmlns="http://www.w3.org/2000/svg"><rect x=".5" y=".5" width="199" height="258" rx="9.5" fill="#fff" stroke="#EAEAEA"/><path d="M0 10C0 4.477 4.477 0 10 0h180c5.523 0 10 4.477 10 10v18H0V10Z" fill="#E6EAED"/><circle cx="14" cy="14" r="4" fill="#FF3B30"/><circle cx="27" cy="14" r="4" fill="#FC0"/><circle cx="40" cy="14" r="4" fill="#4CD964"/><rect x="64" y="10" width="107" height="7" rx="1" fill="#fff"/><rect x="23" y="220" width="154" height="20" rx="2" fill="#2271B1"/><path d="M67.206 233.5h2.796c1.47 0 2.253-.767 2.253-1.809 0-.968-.693-1.553-1.438-1.588v-.064c.68-.154 1.183-.636 1.183-1.407 0-.981-.729-1.677-2.174-1.677h-2.62v6.545Zm1.383-1.131v-1.739h1.16c.665 0 1.078.383 1.078.924 0 .492-.336.815-1.11.815H68.59Zm0-2.675v-1.621h1.052c.614 0 .962.317.962.79 0 .517-.422.831-.988.831H68.59Zm7.69 1.716c.002.658-.448 1.003-.937 1.003-.515 0-.847-.361-.85-.939v-2.883H73.13v3.126c.003 1.147.675 1.847 1.662 1.847.739 0 1.269-.38 1.49-.956h.05v.892h1.308v-4.909h-1.362v2.819Zm3.29 3.931c1.014 0 1.55-.518 1.828-1.31l1.909-5.434-1.442-.006-1.026 3.605h-.05l-1.017-3.605h-1.432l1.761 5.05-.08.207c-.179.461-.52.483-1 .336l-.307 1.016c.195.083.511.141.856.141Zm12.017-8.386h-1.378v4.116h-.057l-2.826-4.116h-1.214v6.545h1.384v-4.12h.048l2.847 4.12h1.196v-6.545Zm3.335 6.641c1.49 0 2.417-1.02 2.417-2.531 0-1.522-.927-2.538-2.416-2.538-1.49 0-2.417 1.016-2.417 2.538 0 1.511.927 2.531 2.416 2.531Zm.007-1.055c-.687 0-1.039-.629-1.039-1.486 0-.856.352-1.489 1.039-1.489.674 0 1.026.633 1.026 1.489 0 .857-.352 1.486-1.026 1.486Zm4.14.959h1.439l.843-3.087h.061l.844 3.087h1.441l1.333-4.909h-1.374l-.748 3.279h-.042l-.805-3.279h-1.352l-.793 3.298h-.044l-.761-3.298h-1.378l1.336 4.909Zm9.071-2.624c0 1.588.418 2.908 1.291 4.046h1.301c-.668-.844-1.176-2.531-1.176-4.046 0-1.512.508-3.199 1.176-4.043h-1.301c-.873 1.138-1.291 2.455-1.291 4.043Zm9.183-1.63c-.183-1.512-1.327-2.381-2.842-2.381-1.729 0-3.049 1.221-3.049 3.362 0 2.135 1.298 3.362 3.049 3.362 1.678 0 2.691-1.115 2.842-2.32l-1.4-.006c-.131.7-.681 1.102-1.419 1.102-.994 0-1.669-.738-1.669-2.138 0-1.361.665-2.138 1.678-2.138.758 0 1.304.438 1.41 1.157h1.4Zm.743-1.15h2.004v5.404h1.368v-5.404h2.003v-1.141h-5.375v1.141Zm6.58 5.404.486-1.493h2.362l.486 1.493h1.483l-2.257-6.545h-1.783l-2.26 6.545h1.483Zm.838-2.573.805-2.477h.051l.806 2.477h-1.662Zm7.036-.7c0-1.588-.419-2.908-1.291-4.046h-1.301c.668.844 1.176 2.531 1.176 4.046 0 1.512-.508 3.199-1.176 4.043h1.301c.872-1.138 1.291-2.454 1.291-4.043Z" fill="#fff"/><rect x="65" y="164" width="70" height="4" rx="1" fill="#E6EAED"/><rect x="75" y="57" width="50" height="4" rx="1" fill="#E6EAED"/><rect x="50" y="43" width="100" height="4" rx="1" fill="#2271B1"/><rect x="23.75" y="76.75" width="152.5" height="61.5" rx="1.25" fill="#fff" stroke="#2271B1" stroke-width="1.5"/><path d="m95.877 113.483 19.113-19.384 28.349 32.151H58.876l24.53-23.351 11.427 10.607.533.495.51-.518Z" fill="#fff" stroke="#2271B1" stroke-width="1.5"/><path d="M101.25 95c0 2.962-2.187 5.25-4.75 5.25s-4.75-2.288-4.75-5.25 2.187-5.25 4.75-5.25 4.75 2.288 4.75 5.25Z" fill="#fff" stroke="#2271B1" stroke-width="1.5"/><path d="m166.727 111.06 3.053-3.06-3.053-3.06.94-.94 4 4-4 4-.94-.94ZM34.272 111.06 31.219 108l3.053-3.06-.94-.94-4 4 4 4 .94-.94Z" fill="#2271B1"/><circle cx="91.5" cy="147.5" r="1.5" fill="#2271B1"/><circle cx="99.5" cy="147.5" r="1.5" fill="#2271B1"/><circle cx="107.5" cy="147.5" r="1.5" fill="#2271B1"/><rect x="23" y="178" width="154" height="4" rx="1" fill="#E6EAED"/><rect x="23" y="192" width="154" height="4" rx="1" fill="#E6EAED"/><rect x="23" y="206" width="154" height="4" rx="1" fill="#E6EAED"/></svg>
